X: 6306
T: Carraroe, The
R: jig
M: 6/8
K: Dmajor
"D" DED F2A|d2d cBA|"G" B2A Bcd|"A" e2d e2f|
"D"DED F2A|d2d cBA|"G" B2A "A" B2c|1 "D"d3 d3:|2 "D" d3 d2e||
|:"D" f2f fed|"G" B2B BAF|"D" ABA g2f|"A" e3 efg|
"D" f2a fed|"G" B2d BAF|"A" ABA B2c|1 "D" d3 d2e:|2 "D" d3 d3||

